;FLAVOR:Marlin
;TIME:1468
;Filament used: 1.52723m
;Layer height: 0.2
;Generated with Cura_SteamEngine 3.1.0
M190 S60
M104 S205
M109 S205
M82 ; absolute extrusion mode
G21 ;metric values
G90 ;absolute positioning
M82 ;set extruder to absolute mode
M107 ;start with the fan off
G28 X0 Y0 ;move X/Y to min endstops
G28 Z0 ;move Z to min endstops
G1 Z15.0 F9000 ;move the platform down 15mm
G92 E0 ;zero the extruded length
G1 F200 E3 ;extrude 3mm of feed stock
G92 E0 ;zero the extruded length again
G1 F9000
;Put printing message on LCD screen
M117 Printing...
;LAYER_COUNT:100
;LAYER:0
M107
G0 F3600 X69.992 Y88.522 Z0.3
;TYPE:SKIRT
G1 F1800 X71.539 Y87.338 E0.09831
G1 X72.19 Y86.89 E0.13819
G1 X72.882 Y86.511 E0.17801
G1 X73.308 Y86.32 E0.20157
G1 X75.111 Y85.577 E0.29998
G1 X75.856 Y85.314 E0.33985
G1 X76.623 Y85.127 E0.37969
G1 X77.076 Y85.054 E0.40285
G1 X79.004 Y84.803 E0.50097
G1 X79.791 Y84.741 E0.5408
G1 X80.581 Y84.759 E0.58068
G1 X81.041 Y84.806 E0.60402
G1 X82.971 Y85.063 E0.70228
G1 X83.747 Y85.207 E0.7421
G1 X84.505 Y85.428 E0.78195
G1 X84.939 Y85.594 E0.8054
G1 X86.738 Y86.343 E0.90374
G1 X87.451 Y86.683 E0.9436
G1 X88.125 Y87.094 E0.98344
G1 X88.499 Y87.364 E1.00672
G1 X89.997 Y88.518 E1.10215
G1 X91.539 Y87.338 E1.20014
G1 X92.19 Y86.89 E1.24002
G1 X92.882 Y86.511 E1.27983
G1 X93.308 Y86.32 E1.30339
G1 X95.111 Y85.577 E1.40181
G1 X95.856 Y85.314 E1.44168
G1 X96.623 Y85.127 E1.48152
G1 X97.076 Y85.054 E1.50467
G1 X99.004 Y84.803 E1.60279
G1 X99.791 Y84.741 E1.64263
G1 X100.581 Y84.759 E1.68251
G1 X101.041 Y84.806 E1.70584
G1 X102.971 Y85.063 E1.8041
G1 X103.747 Y85.207 E1.84393
G1 X104.505 Y85.428 E1.88378
G1 X104.939 Y85.594 E1.90723
G1 X106.738 Y86.343 E2.00557
G1 X107.451 Y86.683 E2.04543
G1 X108.125 Y87.094 E2.08527
G1 X108.499 Y87.364 E2.10855
G1 X110.043 Y88.553 E2.20689
G1 X110.644 Y89.066 E2.24677
G1 X111.189 Y89.637 E2.2866
G1 X111.478 Y89.992 E2.3097
G1 X112.662 Y91.539 E2.40802
G1 X113.11 Y92.19 E2.4479
G1 X113.489 Y92.882 E2.48771
G1 X113.68 Y93.308 E2.51127
G1 X114.423 Y95.111 E2.60968
G1 X114.686 Y95.856 E2.64956
G1 X114.873 Y96.623 E2.6894
G1 X114.946 Y97.076 E2.71255
G1 X115.197 Y99.004 E2.81067
G1 X115.259 Y99.791 E2.85051
G1 X115.241 Y100.581 E2.89039
G1 X115.194 Y101.041 E2.91372
G1 X114.937 Y102.97 E3.01193
G1 X114.793 Y103.747 E3.05181
G1 X114.571 Y104.505 E3.09167
G1 X114.406 Y104.937 E3.11501
G1 X113.657 Y106.737 E3.21339
G1 X113.318 Y107.449 E3.25319
G1 X112.907 Y108.124 E3.29307
G1 X112.636 Y108.499 E3.31642
G1 X111.447 Y110.043 E3.41477
G1 X110.934 Y110.644 E3.45464
G1 X110.363 Y111.189 E3.49448
G1 X110.008 Y111.478 E3.51758
G1 X108.461 Y112.662 E3.61589
G1 X107.81 Y113.11 E3.65577
G1 X107.118 Y113.489 E3.69559
G1 X106.692 Y113.68 E3.71915
G1 X104.889 Y114.423 E3.81756
G1 X104.144 Y114.686 E3.85743
G1 X103.377 Y114.873 E3.89727
G1 X102.924 Y114.946 E3.92042
G1 X100.996 Y115.197 E4.01854
G1 X100.209 Y115.259 E4.05838
G1 X99.419 Y115.241 E4.09826
G1 X98.959 Y115.194 E4.12159
G1 X97.029 Y114.937 E4.21985
G1 X96.253 Y114.793 E4.25968
G1 X95.495 Y114.572 E4.29953
G1 X95.061 Y114.406 E4.32298
G1 X93.262 Y113.657 E4.42132
G1 X92.549 Y113.317 E4.46118
G1 X91.875 Y112.906 E4.50102
G1 X91.5 Y112.635 E4.52437
G1 X90.003 Y111.482 E4.61973
G1 X88.461 Y112.662 E4.71771
G1 X87.81 Y113.11 E4.75759
G1 X87.118 Y113.489 E4.79741
G1 X86.692 Y113.68 E4.82097
G1 X84.889 Y114.423 E4.91938
G1 X84.144 Y114.686 E4.95925
G1 X83.377 Y114.873 E4.99909
G1 X82.924 Y114.946 E5.02225
G1 X80.996 Y115.197 E5.12037
G1 X80.209 Y115.259 E5.16021
G1 X79.419 Y115.241 E5.20009
G1 X78.959 Y115.194 E5.22342
G1 X77.029 Y114.937 E5.32168
G1 X76.253 Y114.793 E5.36151
G1 X75.495 Y114.572 E5.40135
G1 X75.061 Y114.406 E5.4248
G1 X73.262 Y113.657 E5.52314
G1 X72.549 Y113.317 E5.56301
G1 X71.875 Y112.906 E5.60285
G1 X71.5 Y112.635 E5.6262
G1 X69.954 Y111.444 E5.72468
G1 X69.353 Y110.931 E5.76456
G1 X68.808 Y110.36 E5.80439
G1 X68.518 Y110.003 E5.8276
G1 X67.335 Y108.456 E5.92588
G1 X66.888 Y107.805 E5.96574
G1 X66.508 Y107.113 E6.00558
G1 X66.319 Y106.689 E6.029
G1 X65.577 Y104.888 E6.1273
G1 X65.314 Y104.144 E6.16713
G1 X65.127 Y103.377 E6.20697
G1 X65.054 Y102.924 E6.23012
G1 X64.803 Y100.996 E6.32824
G1 X64.741 Y100.209 E6.36808
G1 X64.759 Y99.419 E6.40796
G1 X64.806 Y98.959 E6.43129
G1 X65.063 Y97.03 E6.5295
G1 X65.207 Y96.253 E6.56938
G1 X65.429 Y95.495 E6.60924
G1 X65.594 Y95.063 E6.63258
G1 X66.343 Y93.263 E6.73096
G1 X66.682 Y92.551 E6.77076
G1 X67.093 Y91.876 E6.81064
G1 X67.364 Y91.501 E6.83399
G1 X68.553 Y89.957 E6.93234
G1 X69.066 Y89.356 E6.97221
G1 X69.637 Y88.811 E7.01205
G1 X69.992 Y88.522 E7.03515
G0 F3600 X70.235 Y88.84
G1 F1800 X71.782 Y87.656 E7.13346
G1 X72.417 Y87.22 E7.17233
G1 X73.093 Y86.854 E7.21112
G1 X73.461 Y86.69 E7.23146
G1 X75.264 Y85.947 E7.32987
G1 X75.989 Y85.691 E7.36867
G1 X76.737 Y85.512 E7.40748
G1 X77.128 Y85.451 E7.42745
G1 X79.056 Y85.2 E7.52557
G1 X79.823 Y85.14 E7.5644
G1 X80.591 Y85.161 E7.60317
G1 X80.988 Y85.203 E7.62332
G1 X82.918 Y85.46 E7.72157
G1 X83.674 Y85.601 E7.76038
G1 X84.411 Y85.819 E7.79917
G1 X84.785 Y85.963 E7.81939
G1 X86.584 Y86.712 E7.91773
G1 X87.278 Y87.045 E7.95658
G1 X87.934 Y87.447 E7.99541
G1 X88.255 Y87.681 E8.01545
G1 X89.799 Y88.87 E8.1138
G1 X89.993 Y89.036 E8.12668
G1 X90.235 Y88.84 E8.1424
G1 X91.782 Y87.656 E8.24071
G1 X92.417 Y87.22 E8.27958
G1 X93.093 Y86.854 E8.31838
G1 X93.461 Y86.69 E8.33871
G1 X95.264 Y85.947 E8.43712
G1 X95.989 Y85.691 E8.47592
G1 X96.737 Y85.512 E8.51474
G1 X97.128 Y85.451 E8.53471
G1 X99.056 Y85.2 E8.63282
G1 X99.823 Y85.14 E8.67165
G1 X100.591 Y85.161 E8.71042
G1 X100.988 Y85.203 E8.73057
G1 X102.918 Y85.46 E8.82883
G1 X103.674 Y85.601 E8.86764
G1 X104.411 Y85.819 E8.90642
G1 X104.785 Y85.963 E8.92665
G1 X106.584 Y86.712 E9.02499
G1 X107.278 Y87.045 E9.06383
G1 X107.934 Y87.447 E9.10266
G1 X108.255 Y87.681 E9.12271
G1 X109.799 Y88.87 E9.22105
G1 X110.383 Y89.37 E9.25985
G1 X110.912 Y89.929 E9.29869
G1 X111.16 Y90.235 E9.31857
G1 X112.344 Y91.782 E9.41688
G1 X112.78 Y92.417 E9.45575
G1 X113.146 Y93.093 E9.49454
G1 X113.31 Y93.461 E9.51487
G1 X114.053 Y95.264 E9.61329
G1 X114.309 Y95.989 E9.65209
G1 X114.488 Y96.737 E9.6909
G1 X114.549 Y97.128 E9.71087
G1 X114.8 Y99.056 E9.80899
G1 X114.86 Y99.823 E9.84782
G1 X114.839 Y100.591 E9.88659
G1 X114.797 Y100.988 E9.90673
G1 X114.54 Y102.917 E10.00494
G1 X114.399 Y103.673 E10.04375
G1 X114.18 Y104.411 E10.0826
G1 X114.037 Y104.783 E10.10271
G1 X113.288 Y106.583 E10.2011
G1 X112.956 Y107.277 E10.23992
G1 X112.554 Y107.932 E10.27871
G1 X112.319 Y108.255 E10.29887
G1 X111.13 Y109.799 E10.39721
G1 X110.63 Y110.383 E10.43601
G1 X110.071 Y110.912 E10.47485
G1 X109.765 Y111.16 E10.49473
G1 X108.218 Y112.344 E10.59304
G1 X107.583 Y112.78 E10.63191
G1 X106.907 Y113.146 E10.6707
G1 X106.539 Y113.31 E10.69103
G1 X104.736 Y114.053 E10.78945
G1 X104.011 Y114.309 E10.82825
G1 X103.263 Y114.488 E10.86706
G1 X102.872 Y114.549 E10.88703
G1 X100.944 Y114.8 E10.98515
G1 X100.177 Y114.86 E11.02398
G1 X99.409 Y114.839 E11.06275
G1 X99.012 Y114.797 E11.08289
G1 X97.082 Y114.54 E11.18115
G1 X96.326 Y114.399 E11.21996
G1 X95.589 Y114.181 E11.25875
G1 X95.215 Y114.037 E11.27897
G1 X93.416 Y113.288 E11.37731
G1 X92.722 Y112.955 E11.41616
G1 X92.066 Y112.553 E11.45499
G1 X91.744 Y112.318 E11.4751
G1 X90.198 Y111.127 E11.57359
G1 X90.007 Y110.964 E11.58626
G1 X89.765 Y111.16 E11.60198
G1 X88.218 Y112.344 E11.70029
G1 X87.583 Y112.78 E11.73916
G1 X86.907 Y113.146 E11.77795
G1 X86.539 Y113.31 E11.79829
G1 X84.736 Y114.053 E11.8967
G1 X84.011 Y114.309 E11.9355
G1 X83.263 Y114.488 E11.97431
G1 X82.872 Y114.549 E11.99428
G1 X80.944 Y114.8 E12.0924
G1 X80.177 Y114.86 E12.13123
G1 X79.409 Y114.839 E12.17
G1 X79.012 Y114.797 E12.19014
G1 X77.082 Y114.54 E12.2884
G1 X76.326 Y114.399 E12.32721
G1 X75.589 Y114.181 E12.366
G1 X75.215 Y114.037 E12.38622
G1 X73.416 Y113.288 E12.48456
G1 X72.722 Y112.955 E12.52341
G1 X72.066 Y112.553 E12.56224
G1 X71.744 Y112.318 E12.58235
G1 X70.198 Y111.127 E12.68084
G1 X69.614 Y110.627 E12.71964
G1 X69.085 Y110.068 E12.75848
G1 X68.836 Y109.76 E12.77846
G1 X67.653 Y108.213 E12.87675
G1 X67.218 Y107.579 E12.91555
G1 X66.851 Y106.903 E12.95436
G1 X66.689 Y106.537 E12.97456
G1 X65.947 Y104.736 E13.07286
G1 X65.691 Y104.01 E13.11171
G1 X65.512 Y103.262 E13.15053
G1 X65.451 Y102.872 E13.17045
G1 X65.2 Y100.944 E13.26856
G1 X65.14 Y100.177 E13.30739
G1 X65.161 Y99.409 E13.34616
G1 X65.203 Y99.012 E13.36631
G1 X65.46 Y97.083 E13.46452
G1 X65.601 Y96.327 E13.50333
G1 X65.82 Y95.589 E13.54217
G1 X65.963 Y95.217 E13.56229
G1 X66.712 Y93.417 E13.66067
G1 X67.044 Y92.723 E13.6995
G1 X67.446 Y92.068 E13.73828
G1 X67.681 Y91.745 E13.75844
G1 X68.87 Y90.201 E13.85678
G1 X69.37 Y89.617 E13.89558
G1 X69.929 Y89.088 E13.93442
G1 X70.235 Y88.84 E13.9543
G0 F3600 X70.479 Y89.157
G1 F1800 X72.026 Y87.973 E14.05261
G1 X72.643 Y87.551 E14.09033
G1 X73.613 Y87.06 E14.1452
G1 X75.416 Y86.317 E14.24361
G1 X76.122 Y86.069 E14.28137
G1 X77.179 Y85.848 E14.33587
G1 X79.107 Y85.597 E14.43399
G1 X79.853 Y85.54 E14.47174
G1 X80.935 Y85.599 E14.52643
G1 X82.865 Y85.856 E14.62469
G1 X83.6 Y85.994 E14.66243
G1 X84.632 Y86.333 E14.71724
G1 X86.431 Y87.082 E14.81559
G1 X87.105 Y87.406 E14.85333
G1 X88.011 Y87.998 E14.90794
G1 X89.555 Y89.187 E15.00629
G1 X90.01 Y89.577 E15.03653
G1 X90.479 Y89.157 E15.0683
G1 X92.026 Y87.973 E15.16661
G1 X92.643 Y87.551 E15.20434
G1 X93.613 Y87.06 E15.2592
G1 X95.416 Y86.317 E15.35761
G1 X96.122 Y86.069 E15.39538
G1 X97.179 Y85.848 E15.44987
G1 X99.107 Y85.597 E15.54799
G1 X99.853 Y85.54 E15.58575
G1 X100.935 Y85.599 E15.64043
G1 X102.865 Y85.856 E15.73869
G1 X103.6 Y85.994 E15.77643
G1 X104.632 Y86.333 E15.83125
G1 X106.431 Y87.082 E15.92959
G1 X107.105 Y87.406 E15.96733
G1 X108.011 Y87.998 E16.02194
G1 X109.555 Y89.187 E16.12029
G1 X110.122 Y89.674 E16.15801
G1 X110.843 Y90.479 E16.21254
G1 X112.027 Y92.026 E16.31086
G1 X112.449 Y92.643 E16.34858
G1 X112.94 Y93.613 E16.40344
G1 X113.683 Y95.416 E16.50186
G1 X113.931 Y96.122 E16.53962
G1 X114.152 Y97.179 E16.59411
G1 X114.403 Y99.107 E16.69223
G1 X114.46 Y99.853 E16.72999
G1 X114.401 Y100.935 E16.78467
G1 X114.144 Y102.864 E16.88288
G1 X114.005 Y103.6 E16.92068
G1 X113.668 Y104.629 E16.97532
G1 X112.919 Y106.429 E17.07371
G1 X112.595 Y107.104 E17.1115
G1 X112.002 Y108.011 E17.16618
G1 X110.813 Y109.555 E17.26453
G1 X110.326 Y110.122 E17.30225
G1 X109.521 Y110.843 E17.35678
G1 X107.974 Y112.027 E17.4551
G1 X107.357 Y112.449 E17.49282
G1 X106.387 Y112.94 E17.54768
G1 X104.584 Y113.683 E17.6461
G1 X103.878 Y113.931 E17.68386
G1 X102.821 Y114.152 E17.73835
G1 X100.893 Y114.403 E17.83647
G1 X100.147 Y114.46 E17.87423
G1 X99.065 Y114.401 E17.92891
G1 X97.135 Y114.144 E18.02717
G1 X96.4 Y114.006 E18.06491
G1 X95.368 Y113.667 E18.11973
G1 X93.569 Y112.918 E18.21807
G1 X92.895 Y112.594 E18.25581
G1 X91.988 Y112.001 E18.3105
G1 X90.442 Y110.81 E18.40898
G1 X89.991 Y110.422 E18.43901
G1 X89.521 Y110.843 E18.47085
G1 X87.974 Y112.027 E18.56916
G1 X87.357 Y112.449 E18.60688
G1 X86.387 Y112.94 E18.66175
G1 X84.584 Y113.683 E18.76016
G1 X83.878 Y113.931 E18.79792
G1 X82.821 Y114.152 E18.85242
G1 X80.893 Y114.403 E18.95054
G1 X80.147 Y114.46 E18.98829
G1 X79.065 Y114.401 E19.04298
G1 X77.135 Y114.144 E19.14124
G1 X76.4 Y114.006 E19.17898
G1 X75.368 Y113.667 E19.2338
G1 X73.569 Y112.918 E19.33214
G1 X72.895 Y112.594 E19.36988
G1 X71.988 Y112.001 E19.42456
G1 X70.442 Y110.81 E19.52305
G1 X69.875 Y110.323 E19.56077
G1 X69.153 Y109.517 E19.61538
G1 X67.97 Y107.97 E19.71366
G1 X67.548 Y107.352 E19.75142
G1 X67.059 Y106.385 E19.80611
G1 X66.317 Y104.584 E19.90441
G1 X66.069 Y103.878 E19.94217
G1 X65.848 Y102.821 E19.99666
G1 X65.597 Y100.893 E20.09478
G1 X65.54 Y100.147 E20.13254
G1 X65.599 Y99.065 E20.18722
G1 X65.856 Y97.136 E20.28543
G1 X65.995 Y96.4 E20.32323
G1 X66.332 Y95.371 E20.37787
G1 X67.081 Y93.571 E20.47626
G1 X67.405 Y92.896 E20.51405
G1 X67.998 Y91.989 E20.56873
G1 X69.187 Y90.445 E20.66708
G1 X69.674 Y89.878 E20.7048
G1 X70.479 Y89.157 E20.75933
G0 F3600 X70.722 Y89.475
G1 F1800 X72.269 Y88.291 E20.85765
G1 X72.869 Y87.882 E20.89429
G1 X73.765 Y87.43 E20.94493
G1 X75.568 Y86.687 E21.04335
G1 X76.254 Y86.447 E21.08002
G1 X77.231 Y86.244 E21.13038
G1 X79.159 Y85.993 E21.2285
G1 X79.883 Y85.939 E21.26514
G1 X80.882 Y85.996 E21.31563
G1 X82.812 Y86.253 E21.41389
G1 X83.526 Y86.388 E21.45056
G1 X84.478 Y86.702 E21.50115
G1 X86.277 Y87.451 E21.59949
G1 X86.931 Y87.767 E21.63615
G1 X87.767 Y88.315 E21.68659
G1 X89.311 Y89.504 E21.78494
G1 X89.861 Y89.978 E21.82158
G1 X89.993 Y90.126 E21.83159
G1 X90.722 Y89.475 E21.88091
G1 X92.269 Y88.291 E21.97922
G1 X92.869 Y87.882 E22.01587
G1 X93.765 Y87.43 E22.06651
G1 X95.568 Y86.687 E22.16492
G1 X96.254 Y86.447 E22.2016
G1 X97.231 Y86.244 E22.25196
G1 X99.159 Y85.993 E22.35007
G1 X99.883 Y85.939 E22.38671
G1 X100.882 Y85.996 E22.43721
G1 X102.812 Y86.253 E22.53547
G1 X103.526 Y86.388 E22.57214
G1 X104.478 Y86.702 E22.62273
G1 X106.277 Y87.451 E22.72107
G1 X106.931 Y87.767 E22.75772
G1 X107.767 Y88.315 E22.80817
G1 X109.311 Y89.504 E22.90651
G1 X109.861 Y89.978 E22.94315
G1 X110.525 Y90.722 E22.99348
G1 X111.709 Y92.269 E23.09179
G1 X112.118 Y92.869 E23.12844
G1 X112.57 Y93.765 E23.17908
G1 X113.313 Y95.568 E23.27749
G1 X113.553 Y96.254 E23.31417
G1 X113.756 Y97.231 E23.36453
G1 X114.007 Y99.159 E23.46264
G1 X114.061 Y99.883 E23.49928
G1 X114.004 Y100.883 E23.54983
G1 X113.747 Y102.812 E23.64804
G1 X113.612 Y103.525 E23.68466
G1 X113.299 Y104.476 E23.73518
G1 X112.55 Y106.276 E23.83357
G1 X112.234 Y106.93 E23.87023
G1 X111.685 Y107.767 E23.92074
G1 X110.496 Y109.311 E24.01909
G1 X110.022 Y109.861 E24.05573
G1 X109.278 Y110.525 E24.10605
G1 X107.731 Y111.709 E24.20436
G1 X107.131 Y112.118 E24.24101
G1 X106.235 Y112.57 E24.29165
G1 X104.432 Y113.313 E24.39007
G1 X103.746 Y113.553 E24.42674
G1 X102.769 Y113.756 E24.4771
G1 X100.841 Y114.007 E24.57522
G1 X100.117 Y114.061 E24.61186
G1 X99.118 Y114.004 E24.66235
G1 X97.188 Y113.747 E24.76061
G1 X96.474 Y113.612 E24.79728
G1 X95.522 Y113.298 E24.84787
G1 X93.723 Y112.549 E24.94621
G1 X93.069 Y112.233 E24.98287
G1 X92.232 Y111.684 E25.03338
G1 X90.686 Y110.493 E25.13187
G1 X90.136 Y110.019 E25.16851
G1 X90.007 Y109.874 E25.1783
G1 X89.278 Y110.525 E25.22763
G1 X87.731 Y111.709 E25.32594
G1 X87.131 Y112.118 E25.36258
G1 X86.235 Y112.57 E25.41323
G1 X84.432 Y113.313 E25.51164
G1 X83.746 Y113.553 E25.54832
G1 X82.769 Y113.756 E25.59867
G1 X80.841 Y114.007 E25.69679
G1 X80.117 Y114.061 E25.73343
G1 X79.118 Y114.004 E25.78393
G1 X77.188 Y113.747 E25.88218
G1 X76.474 Y113.612 E25.91885
G1 X75.522 Y113.298 E25.96944
G1 X73.723 Y112.549 E26.06778
G1 X73.069 Y112.233 E26.10444
G1 X72.232 Y111.684 E26.15495
G1 X70.686 Y110.493 E26.25344
G1 X70.136 Y110.019 E26.29008
G1 X69.471 Y109.274 E26.34048
G1 X68.288 Y107.727 E26.43876
G1 X67.879 Y107.127 E26.4754
G1 X67.429 Y106.232 E26.52596
G1 X66.687 Y104.431 E26.62426
G1 X66.447 Y103.745 E26.66093
G1 X66.244 Y102.769 E26.71124
G1 X65.993 Y100.841 E26.80936
G1 X65.939 Y100.117 E26.846
G1 X65.996 Y99.117 E26.89655
G1 X66.253 Y97.188 E26.99475
G1 X66.388 Y96.475 E27.03137
G1 X66.701 Y95.524 E27.0819
G1 X67.45 Y93.724 E27.18029
G1 X67.766 Y93.07 E27.21694
G1 X68.315 Y92.233 E27.26746
G1 X69.504 Y90.689 E27.3658
G1 X69.978 Y90.139 E27.40244
G1 X70.722 Y89.475 E27.45277
G0 F3600 X70.965 Y89.793
G1 F1800 X72.512 Y88.609 E27.55108
G1 X73.094 Y88.213 E27.5866
G1 X73.918 Y87.8 E27.63312
G1 X75.721 Y87.057 E27.73153
G1 X76.386 Y86.826 E27.76706
G1 X77.283 Y86.641 E27.81328
G1 X79.211 Y86.39 E27.9114
G1 X79.913 Y86.339 E27.94692
G1 X80.829 Y86.392 E27.99322
G1 X82.759 Y86.649 E28.09148
G1 X83.451 Y86.782 E28.12704
G1 X84.324 Y87.071 E28.17345
G1 X86.123 Y87.82 E28.27179
G1 X86.757 Y88.127 E28.30734
G1 X87.523 Y88.632 E28.35364
G1 X89.067 Y89.821 E28.45198
G1 X89.599 Y90.281 E28.48747
G1 X89.997 Y90.729 E28.51771
G1 X90.281 Y90.401 E28.53961
G1 X90.965 Y89.793 E28.58579
G1 X92.512 Y88.609 E28.6841
G1 X93.094 Y88.213 E28.71963
G1 X93.918 Y87.8 E28.76614
G1 X95.721 Y87.057 E28.86456
G1 X96.386 Y86.826 E28.90008
